assets/src/images/icons/ic_security.svg

<svg width="95" height="102" viewBox="0 0 95 102" fill="none" xmlns="http://www.w3.org/2000/svg">
<g opacity="0.6" filter="url(#filter0_d)">
<path fill-rule="evenodd" clip-rule="evenodd" d="M63.6328 34.9219C61.3712 34.9219 59.5312 33.0819 59.5312 30.8203C59.5312 30.3673 59.1639 30 58.7109 30H35.7422C35.2892 30 34.9219 30.3673 34.9219 30.8203C34.9219 33.0819 33.0819 34.9219 30.8203 34.9219C30.3673 34.9219 30 35.2892 30 35.7422V49.1289C30 59.5614 36.8 68.9095 46.991 71.9655C47.0678 71.9884 47.1472 72 47.2266 72C47.306 72 47.3855 71.9884 47.4622 71.9654C57.4325 68.9746 64.4531 59.7896 64.4531 49.1289V35.7422C64.4531 35.2892 64.0858 34.9219 63.6328 34.9219ZM62.8125 49.1289C62.8125 58.9273 56.56 67.413 47.2266 70.3219C37.9675 67.4362 31.6406 58.8737 31.6406 49.1289V36.5041C34.1517 36.1433 36.1433 34.1517 36.5041 31.6406H57.949C58.3098 34.1517 60.3014 36.1433 62.8125 36.5041V49.1289ZM47.2266 33.2821C46.7723 33.2821 46.4071 33.6479 46.4071 34.1016C46.4071 34.5238 46.7247 34.8751 47.1445 34.9168C47.6306 34.965 48.0461 34.5864 48.0461 34.1016C48.0461 33.6473 47.6802 33.2821 47.2266 33.2821ZM56.8661 33.7725C57.6152 35.4831 58.97 36.8379 60.6807 37.5871C60.979 37.7178 61.1719 38.0126 61.1719 38.3385V49.1289C61.1719 57.9308 55.7254 65.5911 47.5002 68.5019C47.4117 68.5332 47.3192 68.5489 47.2266 68.5489C47.1339 68.5489 47.0414 68.5332 46.9529 68.5019C38.7208 65.5887 33.2812 57.9237 33.2812 49.1289V38.3385C33.2812 38.0127 33.4741 37.7178 33.7725 37.5871C35.4831 36.8379 36.8379 35.4831 37.5871 33.7725C37.7178 33.4741 38.0126 33.2812 38.3385 33.2812H43.947C44.3999 33.2812 44.7673 33.6486 44.7673 34.1016C44.7673 34.5545 44.3999 34.9219 43.947 34.9219H38.8572C37.9904 36.6184 36.6184 37.9904 34.9219 38.8572V49.1289C34.9219 57.1567 39.7411 64.0833 47.2266 66.8561C54.712 64.0834 59.5312 57.1567 59.5312 49.1289V38.8572C57.8348 37.9904 56.4626 36.6184 55.596 34.9219H50.5062C50.0532 34.9219 49.6859 34.5545 49.6859 34.1016C49.6859 33.6486 50.0532 33.2812 50.5062 33.2812H56.1146C56.4405 33.2812 56.7353 33.474 56.8661 33.7725ZM47.2266 41.9766C43.1557 41.9766 39.8438 45.2885 39.8438 49.3594C39.8438 53.4303 43.1557 56.7422 47.2266 56.7422C51.2974 56.7422 54.6094 53.4303 54.6094 49.3594C54.6094 45.2885 51.2974 41.9766 47.2266 41.9766ZM47.2266 55.1016C44.0603 55.1016 41.4844 52.5256 41.4844 49.3594C41.4844 46.1931 44.0603 43.6172 47.2266 43.6172C50.3928 43.6172 52.9688 46.1931 52.9688 49.3594C52.9688 52.5256 50.3928 55.1016 47.2266 55.1016ZM49.9277 47.1386C50.2482 46.8184 50.7674 46.8184 51.0879 47.1386C51.4082 47.459 51.4082 47.9785 51.0879 48.2988L46.9863 52.4004C46.8261 52.5605 46.6163 52.6406 46.4063 52.6406C46.1963 52.6406 45.9864 52.5605 45.8261 52.4004L44.1855 50.7598C43.8652 50.4394 43.8652 49.92 44.1855 49.5996C44.506 49.2794 45.0253 49.2794 45.3457 49.5996L46.4063 50.6601L49.9277 47.1386Z" fill="#0EF5FF"/>
</g>
<defs>
<filter id="filter0_d" x="0" y="0" width="94.4531" height="102" filterUnits="userSpaceOnUse" color-interpolation-filters="sRGB">
<feFlood flood-opacity="0" result="BackgroundImageFix"/>
<feColorMatrix in="SourceAlpha" type="matrix" values="0 0 0 0 0 0 0 0 0 0 0 0 0 0 0 0 0 0 127 0"/>
<feOffset/>
<feGaussianBlur stdDeviation="15"/>
<feColorMatrix type="matrix" values="0 0 0 0 0.054902 0 0 0 0 0.960784 0 0 0 0 1 0 0 0 0.8 0"/>
<feBlend mode="normal" in2="BackgroundImageFix" result="effect1_dropShadow"/>
<feBlend mode="normal" in="SourceGraphic" in2="effect1_dropShadow" result="shape"/>
</filter>
</defs>
</svg>

<svg width="95" height="102" viewBox="0 0 95 102" fill="none" xmlns="http://www.w3.org/2000/svg"><g opacity=".6" filter="url(#filter0_d)"><path fill-rule="evenodd" clip-rule="evenodd" d="M63.633 34.922a4.106 4.106 0 01-4.102-4.102.82.82 0 00-.82-.82H35.742a.82.82 0 00-.82.82 4.106 4.106 0 01-4.102 4.102.82.82 0 00-.82.82V49.13c0 10.432 6.8 19.78 16.991 22.837a.825.825 0 00.471 0c9.97-2.991 16.991-12.176 16.991-22.837V35.742a.82.82 0 00-.82-.82zm-.82 14.207c0 9.798-6.253 18.284-15.586 21.193A22.18 22.18 0 0131.64 49.129V36.504a5.756 5.756 0 004.863-4.863H57.95a5.756 5.756 0 004.864 4.863V49.13zM47.227 33.282a.818.818 0 00-.82.82c0 .422.318.773.738.815a.818.818 0 00.901-.815.818.818 0 00-.82-.82zm9.64.49a7.39 7.39 0 003.814 3.815.82.82 0 01.49.752v10.79c0 8.802-5.446 16.462-13.67 19.373a.82.82 0 01-.548 0C38.72 65.589 33.28 57.924 33.28 49.129v-10.79a.82.82 0 01.492-.752 7.39 7.39 0 003.814-3.815.82.82 0 01.752-.49h5.608a.82.82 0 010 1.64h-5.09a9.019 9.019 0 01-3.935 3.935V49.13c0 8.028 4.82 14.954 12.305 17.727 7.485-2.773 12.304-9.7 12.304-17.727V38.857a9.018 9.018 0 01-3.935-3.935h-5.09a.82.82 0 010-1.64h5.609a.82.82 0 01.751.49zm-9.64 8.205c-4.071 0-7.383 3.312-7.383 7.382 0 4.071 3.312 7.383 7.383 7.383 4.07 0 7.382-3.312 7.382-7.383 0-4.07-3.312-7.382-7.382-7.382zm0 13.125a5.749 5.749 0 01-5.743-5.743 5.749 5.749 0 015.743-5.742 5.749 5.749 0 015.742 5.742 5.749 5.749 0 01-5.742 5.743zm2.7-7.963a.82.82 0 011.16 1.16l-4.1 4.101a.818.818 0 01-1.16 0l-1.642-1.64a.82.82 0 011.16-1.16l1.061 1.06 3.522-3.521z" fill="#0EF5FF"/></g><defs><filter id="filter0_d" x="0" y="0" width="94.453" height="102" filterUnits="userSpaceOnUse" color-interpolation-filters="sRGB"><feFlood flood-opacity="0" result="BackgroundImageFix"/><feColorMatrix in="SourceAlpha" values="0 0 0 0 0 0 0 0 0 0 0 0 0 0 0 0 0 0 127 0"/><feOffset/><feGaussianBlur stdDeviation="15"/><feColorMatrix values="0 0 0 0 0.054902 0 0 0 0 0.960784 0 0 0 0 1 0 0 0 0.8 0"/><feBlend in2="BackgroundImageFix" result="effect1_dropShadow"/><feBlend in="SourceGraphic" in2="effect1_dropShadow" result="shape"/></filter></defs></svg>
